packages/icons/assets/Cpu.svg

<svg xmlns="http://www.w3.org/2000/svg" fill="none" viewBox="0 0 16 16"><path fill="#414141" d="M12 16v-2h-2v2H9v-2H7v2H6v-2H4v2H3v-2H2v-1H0v-1h2v-2H0V9h2V7H0V6h2V4H0V3h2V2h1V0h1v2h2V0h1v2h2V0h1v2h2V0h1v2h1v1h2v1h-2v2h2v1h-2v2h2v1h-2v2h2v1h-2v1h-1v2h-1zm1-3V3H3v10h10zm-2-2H5V5h6v6zm-5-1h4V6H6v4z"/></svg>

<svg width="16" height="16" viewBox="0 0 16 16" fill="none" xmlns="http://www.w3.org/2000/svg">
<path d="M12 16V14H10V16H9V14H7V16H6V14H4V16H3V14H2V13H0V12H2V10H0V9H2V7H0V6H2V4H0V3H2V2H3V0H4V2H6V0H7V2H9V0H10V2H12V0H13V2H14V3H16V4H14V6H16V7H14V9H16V10H14V12H16V13H14V14H13V16H12ZM13 13V3H3V13H13ZM11 11H5V5H11V11ZM6 10H10V6H6V10Z" fill="#414141"/>
</svg>
